icons/health_literacy_fill.svg

<svg width="48" height="48" viewBox="0 0 48 48" fill="none" xmlns="http://www.w3.org/2000/svg">
<path d="M33 15C33 14.4477 32.5523 14 32 14C31.4477 14 31 14.4477 31 15V17.7336C30.0843 18.0636 29.1301 18.5184 28.0218 19.1217C27.5368 19.3858 27.3576 19.9931 27.6217 20.4782C27.8858 20.9632 28.4931 21.1424 28.9782 20.8783C29.7414 20.4628 30.3995 20.137 31 19.882V23C31 23.5523 31.4477 24 32 24C32.5523 24 33 23.5523 33 23V19.2354C33.8839 19.0482 34.8057 18.9862 35.9862 19.0025C36.5384 19.0101 36.9923 18.5686 36.9999 18.0164C37.0075 17.4642 36.566 17.0103 36.0138 17.0027C34.9055 16.9874 33.9427 17.0353 33 17.199V15Z" fill="black"/>
<path d="M19.1421 28.9338C16.0447 27.7466 14.4259 27.4716 11.5097 27.5L11.4903 25.5001C14.6697 25.4692 16.5375 25.7935 19.8579 27.0662L19.1421 28.9338Z" fill="black"/>
<path d="M11.5097 22.5C14.4259 22.4716 16.0447 22.7466 19.1421 23.9338L19.8579 22.0662C16.5375 20.7935 14.6697 20.4692 11.4903 20.5001L11.5097 22.5Z" fill="black"/>
<path d="M19.1421 18.9338C16.0447 17.7466 14.4259 17.4716 11.5097 17.5L11.4903 15.5001C14.6697 15.4692 16.5375 15.7935 19.8579 17.0662L19.1421 18.9338Z" fill="black"/>
<path fill-rule="evenodd" clip-rule="evenodd" d="M43.2434 11.2706C42.8198 11.1686 42.4057 11.073 42 10.9838V10.524C42 9.63895 41.411 8.83011 40.516 8.60493C34.3657 7.05761 29.8878 8.6956 24.7596 11.0813C24.5097 11.1326 24.2566 11.1855 24 11.24C23.7434 11.1855 23.4903 11.1326 23.2404 11.0813C18.1122 8.6956 13.6343 7.05761 7.48401 8.60493C6.589 8.83011 6 9.63895 6 10.524V10.9838C5.59433 11.073 5.18022 11.1686 4.75659 11.2706C4.31119 11.3779 4 11.7783 4 12.2364V37.7749C4 38.4077 4.58268 38.8804 5.20425 38.7618C11.4168 37.5766 15.6049 37.4936 21.3258 38.3611C21.8219 39.3338 22.8331 40 24 40C25.1669 40 26.1781 39.3338 26.6742 38.3611C32.3951 37.4936 36.5832 37.5766 42.7957 38.7618C43.4173 38.8804 44 38.4077 44 37.7749V12.2364C44 11.7783 43.6888 11.3779 43.2434 11.2706ZM25 13.1762C30.3169 10.6723 34.3416 9.12233 40 10.5375V33.967L40 33.9681C39.999 33.9694 39.997 33.9719 39.9932 33.9749C39.9871 33.9798 39.9795 33.9838 39.9714 33.9859C39.9645 33.9877 39.9564 33.9884 39.9457 33.9865C34.2143 32.9404 29.9319 34.2006 25.0227 36.4225C25.0204 36.4236 25.0186 36.4242 25.0173 36.4246L25.015 36.4252L25.0139 36.4252C25.0123 36.4251 25.0079 36.4242 25.0028 36.4209L25.0007 36.4193L25 13.1762ZM8 10.5375C13.6584 9.12233 17.6831 10.6732 23 13.1772V36.4189L22.9972 36.4209C22.9966 36.4213 22.9959 36.4217 22.9953 36.4221C22.991 36.4244 22.9875 36.4251 22.9861 36.4252L22.985 36.4252C22.9847 36.4252 22.9823 36.4248 22.9773 36.4225C18.0681 34.2006 13.7857 32.9404 8.05429 33.9865C8.04358 33.9884 8.03554 33.9877 8.02856 33.9859C8.02054 33.9838 8.01286 33.9798 8.00678 33.9749C8.00583 33.9741 8.005 33.9734 8.00426 33.9727C8.00204 33.9707 8.00072 33.969 8.00001 33.9681L8 33.967V10.5375Z" fill="black"/>
</svg>

<svg
  xmlns="http://www.w3.org/2000/svg"
  width="24"
  height="24"
  viewBox="0 0 24 24"
  fill="none"
  stroke="currentColor"
  stroke-width="2"
  stroke-linecap="round"
  stroke-linejoin="round"
>
  <path d="M33 15a1 1 0 1 0-2 0v2.734c-.916.33-1.87.784-2.978 1.388a1 1 0 0 0 .956 1.756A23 23 0 0 1 31 19.882V23a1 1 0 1 0 2 0v-3.765c.884-.187 1.806-.249 2.986-.232a1 1 0 0 0 .028-2c-1.108-.016-2.071.032-3.014.196z" />
  <path d="M19.142 28.934c-3.097-1.187-4.716-1.462-7.632-1.434l-.02-2c3.18-.03 5.048.294 8.368 1.566z" />
  <path d="M11.51 22.5c2.916-.028 4.535.247 7.632 1.434l.716-1.868c-3.32-1.272-5.188-1.597-8.368-1.566z" />
  <path d="M19.142 18.934c-3.097-1.187-4.716-1.462-7.632-1.434l-.02-2c3.18-.03 5.048.293 8.368 1.566z" />
  <path
    fill-rule="evenodd"
    d="M43.243 11.27A64 64 0 0 0 42 10.985v-.46c0-.885-.589-1.694-1.484-1.92-6.15-1.546-10.628.092-15.756 2.477q-.375.077-.76.159-.385-.082-.76-.159c-5.128-2.385-9.606-4.023-15.756-2.476A1.97 1.97 0 0 0 6 10.524v.46q-.609.134-1.243.287a.99.99 0 0 0-.757.965v25.539c0 .633.583 1.105 1.204.987 6.213-1.185 10.4-1.268 16.122-.4a3 3 0 0 0 5.348 0c5.721-.868 9.91-.785 16.122.4A1.012 1.012 0 0 0 44 37.775V12.236a.99.99 0 0 0-.757-.965M25 13.177c5.317-2.504 9.342-4.054 15-2.639v23.431l-.007.007a.058.058 0 0 1-.047.012c-5.732-1.047-10.014.214-14.923 2.435l-.006.003h-.003l-.011-.004-.002-.002zM8 10.537c5.658-1.415 9.683.136 15 2.64V36.42l-.003.002-.002.001-.009.003h-.001l-.008-.002c-4.909-2.222-9.191-3.483-14.923-2.437a.06.06 0 0 1-.047-.011l-.003-.002L8 33.968V10.537"
    clip-rule="evenodd"
  />
</svg>
